X: 5
T: The Famous Ballymote
R: reel
M: 4/4
L: 1/8
K: Dmix
|FDAD FAAB|cAAG EFGE|FDAD FAAB|cAGE FD D2|
FD D2 FAAB|cAAG EFGE|FDAD FAAB|cAGE FD D2||
|FDFA d2 ed|cAAG EFGE|FDFA d2 ed|cAGE FDAD|
FDFA d2 ed|cAAG EFGE|FD D2 d2 ed|cAGE =F4||


Tune 390	Setting 390

